X: 1928
T: Tibrogargan
C:Bill Montgomery, Kiama, NSW
B: australian traditional tunes wiki
M:4/4
L:1/8
R: March
Q: 1/4=100
K:G
V:1 
d|:"G"(3Bcd G>d B>d G>d|(3Bcd G>d "D7"c>A c>A|"G"(3Bcd G>d B>d G>d|"D7"(3cBA d>B "G"B>G G>d:|
|:"G"(3Bcd g>B d>B g>B|(3Bcd g>B "D7"c>A c>A|"G"(3Bcd g>B d>B g>B|"D7"(3cBA d>B "G"B>G G>d:|
% abcbook-tune_id 6342d5be853669aed8de0ba0


% abcbook-boost 0
% abcbook-tablature 
% abcbook-transpose 
% abcbook-lastupdated 1665324488430
% abcbook-soundfonts 
% abcbook-repeats 1
% NFF Book 2018

